X:1
T:Nous voyons que les hommes
T:Guillaume Costeley  (ca. 1530-1606)
T:From "Musique de Guillaume Costeley", 1570
T:Nous voyons que les hommes
T:Copyright © 
T:Copyright © 
C:Guillaume Costeley  (ca. 1530-1606)
Z:From "Musique de Guillaume Costeley", 1570
Z:Copyright ©
%%score [ 1 2 3 4 ]
L:1/8
M:2/2
K:F
V:1 treble nm="Superius" snm="S."
V:2 treble nm="Contra- tenor" snm="A."
V:3 treble-8 transpose=-12 nm="Tenor" snm="T."
V:4 bass nm="Bassus" snm="B."
V:1
 A4 c2 c2 | d2 d2 c4 | A2 c2 B3 A | G2 F2 F2 E2 | F8 | A4 c2 c2 | d2 d2 c4 | A2 c2 B3 A | %8
w: Nous vo- yons|que les hom-|mes font tous _|ver- tu d'ai- *|mer,|et sot- tes|que nous som-|mes vou- lons _|
w: Na- tu- re|plus qu'eux sa-|ge nous a _|en un corps _|mis,|plus pro- pre\_à|cet u- sa-|ge, et nous _|
 GF F2 F2 E2 | F8 | G2 GG B2 A2 | G2 GG A2 c2 | c2 =B2 c4 | %13
w: _ _ l'a- mour bla-|mer.|Ce qui leur est lou-|a- ble nous tour- n'à|des- hon- neur,|
w: _ _ est moins per-|mis.|O peu de con- nais-|san- ce de leur trop|grand vou- loir,|
 z2"^Nous voyons que les hommesFont tous vertu d'aimer,Et sottes qui nous sommesVoulons l'amour blamer:Ce que leur est louable,Nous tourne à deshonneur,Et faute inexcusable,O dure loi d'honneur,Nature plus qu'eux sageNoue a en vn corps mis,Plus propre à cet' usage,Et nous est moins permis.O peu de connaissanceDe leur trop grand vouloir,Et de leur impuissance,Et de notre pouvoir.O malheureuse ennuieDes hommes rigoureux,Qui privent notre vieDes plaisirs amoureux.Si des le premier ageCe sexe audacieuxPar injure et outrageVoulut forcer les cieux." A2 B3 B | %14
w: O faute in-|
w: et de leur|
 B2 A2 G2 GA | G2 F2 F2 E2!fine! |"^First fiveverses" F8 :|"^Finalverse" !fermata!F16 |] %18
w: es- cu- sa- ble, O|dur- re loi d'hon-|neur.||
w: im- puis- san- ce, et|de no- tre pou-|voir.||
V:2
 F4 A2 G2 | B2 B2 G4 | F2 F2 F2 F2 | _EDCB, C2 C2 | A,8 | F4 A2 G2 | B2 B2 G4 | F2 F2 F2 F2 | %8
w: Nous vo- yons|que les hom-|mes font tous ver-|tu _ _ _ _ d'ai-|mer,|et sot- tes|que nous som-|mes vou- lons l'a-|
w: Na- tu- re|plus qu'eux sa-|ge nous a en|un _ _ _ corps _|mis,|plus pro- pre\_à|cet u- sa-|ge, et nous est|
 _EDCB, C2 C2 | C8 | _E2 EE G2 F2 | E2 EE F2 E2 | G2 G2 E4 | z2 F2 G3 G | G2 F2 E2 EF | %15
w: mour _ _ _ _ bla-|mer.|Ce qui leur est lou-|a- ble nous tour- n'à|des- hon- neur,|O faute in-|es- cu- sa- ble, O|
w: moins _ _ _ _ per-|mis.|O peu de con- nais-|san- ce de leur trop|grand vou- loir,|et de leur|im- puis- san- ce, et|
 D2 B,2 C2 C2 | A,8 :| !fermata!A,16 |] %18
w: dur- re loi d'hon-|neur.||
w: de no- tre pou-|voir.||
V:3
 c4 f2 e2 | f2 f2 e4 | c2 A2 d3 c | B2 A2 G2 G2 | F8 | c4 f2 e2 | f2 f2 e4 | c2 A2 d3 c | %8
w: Nous vo- yons|que les hom-|mes font tous _|ver- tu d'ai- *|mer,|et sot- tes|que nous som-|mes vou- lons _|
w: Na- tu- re|plus qu'eux sa-|ge nous a _|en un corps _|mis,|plus pro- pre\_à|cet u- sa-|ge, et nous _|
 B2 A2 G2 G2 | F8 | B2 BB _e2 c2 | c2 cc c2 c2 | d2 d2 c4 | z2 c2 _e3 e | _e2 c2 c2 cc | %15
w: l'a- * mour bla-|mer.|Ce qui leur est lou-|a- ble nous tour- n'à|des- hon- neur,|O faute in-|es- cu- sa- ble, O|
w: est _ moins per-|mis.|O peu de con- nais-|san- ce de leur trop|grand vou- loir,|et de leur|im- puis- san- ce, et|
 B2 A G/F/ G2 G2 | F8 :| !fermata!F16 |] %18
w: dur- re _ _ loi d'hon-|neur.||
w: de no- * * tre pou-|voir.||
V:4
 F,4 F,2 C2 | B,2 B,2 C4 | F,2 F,2 B,,3 C,/D,/ | _E,2 F,2 C,2 C,2 | F,8 | F,4 F,2 C2 | B,2 B,2 C4 | %7
w: Nous vo- yons|que les hom-|mes font tous _ _|ver- tu d'ai- *|mer,|et sot- tes|que nous som-|
w: Na- tu- re|plus qu'eux sa-|ge nous a _ _|en un corps _|mis,|plus pro- pre\_à|cet u- sa-|
 F,2 F,2 B,,3 C,/D,/ | _E,2 F,2 C,2 C,2 | F,8 | _E,2 E,E, E,2 F,2 | C,2 C,C, F,2 A,2 | %12
w: mes vou- lons _ _|l'a- * mour bla-|mer.|Ce qui leur est lou-|a- ble nous tour- n'à|
w: ge, et nous _ _|est _ moins per-|mis.|O peu de con- nais-|san- ce de leur trop|
 G,2 G,2 C,4 | z2 F,2 _E,3 E, | _E,2 F,2 C,2 C,F, | B,,2 D,2 C,2 C,2 | F,8 :| !fermata!F,16 |] %18
w: des- hon- neur,|O faute in-|es- cu- sa- ble, O|dur- re loi d'hon-|neur.||
w: grand vou- loir,|et de leur|im- puis- san- ce, et|de no- tre pou-|voir.||

